Papirus-nordic/22x22/places/folder-nordic-mail.svg

<svg xmlns="http://www.w3.org/2000/svg" width="22" height="22" version="1"><rect width="20" height="12" x="1" y="8.5" rx="1" ry="1" opacity=".2"/><path d="M1 16c0 .554.446 1 1 1h18c.554 0 1-.446 1-1V5c0-.554-.446-1-1-1H10V3c0-.554-.446-1-1-1H2c-.554 0-1 .446-1 1" fill="#6c9b9a"/><rect width="20" height="12" x="1" y="7.5" rx="1" ry="1" opacity=".2"/><rect width="16" height="8" x="3" y="6" rx="1" ry="1" fill="#e4e4e4"/><rect width="20" height="12" x="1" y="8" rx="1" ry="1" fill="#82abaa"/><path d="M2 2c-.554 0-1 .446-1 1v.5c0-.554.446-1 1-1h7c.554 0 1 .446 1 1V3c0-.554-.446-1-1-1zm8 2v.5h10c.554 0 1 .446 1 1V5c0-.554-.446-1-1-1z" opacity=".1" fill="#fff"/><path d="M11.5 10a3.5 3.5 0 1 0 0 7h2.188s.41 0 .437-.438c0-.437-.437-.437-.437-.437H11.5a2.625 2.625 0 1 1 2.625-2.625v.438a.437.437 0 0 1-.875 0V13.5a1.75 1.75 0 1 0-1.75 1.75c.458 0 .871-.181 1.183-.468A1.312 1.312 0 0 0 15 13.937V13.5a3.5 3.5 0 0 0-3.5-3.5zm0 2.625a.875.875 0 1 1 0 1.75.875.875 0 0 1 0-1.75z" fill="#4e6766"/></svg>

<svg xmlns="http://www.w3.org/2000/svg" width="22" height="22" version="1">
 <rect style="opacity:0.2" width="20" height="12" x="1" y="8.5" rx="1" ry="1"/>
 <path style="fill:#6c9b9a" d="M 1,16 C 1,16.554 1.446,17 2,17 H 20 C 20.554,17 21,16.554 21,16 V 5 C 21,4.446 20.554,4 20,4 H 10 V 3 C 10,2.446 9.554,2 9,2 H 2 C 1.446,2 1,2.446 1,3"/>
 <rect style="opacity:0.2" width="20" height="12" x="1" y="7.5" rx="1" ry="1"/>
 <rect style="fill:#e4e4e4" width="16" height="8" x="3" y="6" rx="1" ry="1"/>
 <rect style="fill:#82abaa" width="20" height="12" x="1" y="8" rx="1" ry="1"/>
 <path style="opacity:0.1;fill:#ffffff" d="M 2,2 C 1.446,2 1,2.446 1,3 V 3.5 C 1,2.946 1.446,2.5 2,2.5 H 9 C 9.554,2.5 10,2.946 10,3.5 V 3 C 10,2.446 9.554,2 9,2 Z M 10,4 V 4.5 H 20 C 20.554,4.5 21,4.946 21,5.5 V 5 C 21,4.446 20.554,4 20,4 Z"/>
 <path style="fill:#4e6766" d="M 11.5,10 C 9.567,10 8,11.567 8,13.5 8,15.433 9.567,17 11.5,17 H 13.688 C 13.688,17 14.098,17 14.125,16.562 14.125,16.125 13.688,16.125 13.688,16.125 H 11.5 C 10.05,16.125 8.875,14.95 8.875,13.5 8.875,12.05 10.05,10.875 11.5,10.875 12.95,10.875 14.125,12.05 14.125,13.5 V 13.938 C 14.125,14.179 13.929,14.375 13.688,14.375 13.446,14.375 13.25,14.179 13.25,13.938 V 13.5 C 13.25,12.534 12.467,11.75 11.5,11.75 10.534,11.75 9.75,12.534 9.75,13.5 9.75,14.467 10.534,15.25 11.5,15.25 11.958,15.25 12.371,15.069 12.683,14.782 12.932,15.078 13.3,15.25 13.688,15.25 14.413,15.25 15,14.662 15,13.937 V 13.5 C 15,11.567 13.433,10 11.5,10 Z M 11.5,12.625 C 11.983,12.625 12.375,13.017 12.375,13.5 12.375,13.983 11.983,14.375 11.5,14.375 11.017,14.375 10.625,13.983 10.625,13.5 10.625,13.017 11.017,12.625 11.5,12.625 Z"/>
</svg>
